X:1
T:Cristóbal, 86.86.88.88
T:Cristóbal, 86.86.88.88
T:D. B. Way, 1878
T:Public Domain Courtesy of the Cyber Hymnal™
C:D. B. Way, 1878
Z:Public Domain
Z:Courtesy of the Cyber Hymnal™
%%score ( 1 2 ) ( 3 4 )
L:1/8
Q:1/4=107
M:4/4
K:D
V:1 treble 
V:2 treble 
V:3 bass 
V:4 bass 
V:1
 ([DF][EG]) | [FA]2 [FA]2 [FA]2 [FA]2 | [GB]2 [FA]2 [DF]2 [FA]2 | [Fd]2 [Fd]2 [Ac]2 [GB]2 | %4
 [FA]6 [FA]2 | [GB]2 [GB]2 [DG]2 [GB]2 | [FA]2 [FA]2 [DF]2 [Fd]2 | [Ec]2 [Ec]2 [GB]2 [Gc]2 | %8
 [Fd]6 ([DF][EG]) | [FA]2 [DF][EG] [FA]2 [GB][FA] | [DF]6 ([CE][DF]) | %11
 [EG]2 [FA][EG] [CE]2 [EG][DF] | [CE]6 ([DF][EG]) | [FA]2 [FA][FA] [GB]2 [Gc]>[Gc] | %14
 [Fd]6 ([Ac][GB]) | [FA]2 [FA][EG] [DF]2 [CE][CE] | D6 |] %17
V:2
 x2 | x8 | x8 | x8 | x8 | x8 | x8 | x8 | x8 | x8 | x8 | x8 | x8 | x8 | x8 | x8 | D6 |] %17
V:3
 [D,A,]2 | [D,D]2 [D,D]2 [D,D]2 [D,D]2 | [D,D]2 [D,D]2 [D,A,]2 [D,A,]2 | %3
 [D,A,]2 [D,A,]2 [D,A,]2 (B,C) | [D,D]6 [D,D]2 | [G,D]2 [G,D]2 [G,B,]2 [G,D]2 | %6
 [D,D]2 [D,D]2 [D,A,]2 [D,A,]2 | [A,,A,]2 [A,,A,]2 [A,,A,]2 [A,,A,]2 | [D,A,]6 [D,A,]2 | %9
 [D,D]2 [D,A,][D,A,] [D,D]2 [D,D][D,D] | [D,A,]6 [A,,A,]2 | %11
 [A,,A,]2 [A,,A,][A,,A,] [A,,A,]2 [A,,A,][A,,A,] | [A,,A,]6 [D,A,]2 | %13
 [D,D]2 [D,D][D,D] [G,D]2 [E,A,]>[E,A,] | [D,A,]6 [D,D]2 | [D,D]2 [D,D][G,B,] A,2 [A,,G,][A,,G,] | %16
 [D,F,]6 |] %17
V:4
 x2 | x8 | x8 | x6 D,2 | x8 | x8 | x8 | x8 | x8 | x8 | x8 | x8 | x8 | x8 | x8 | x4 A,2 x2 | x6 |] %17

